src/smileys-emotion/emotion/1F4AB.svg

<svg id="emoji" viewBox="0 0 72 72" xmlns="http://www.w3.org/2000/svg">
  <g id="grid">
    <path fill="#b3b3b3" d="M68,4V68H4V4H68m4-4H0V72H72V0Z"/>
    <path fill="none" stroke="#00a5ff" stroke-miterlimit="10" stroke-width="0.1" d="M12.923,10.9583H59.0769A1.9231,1.9231,0,0,1,61,12.8814V59.0352a1.9231,1.9231,0,0,1-1.9231,1.9231H12.9231A1.9231,1.9231,0,0,1,11,59.0352V12.8813A1.923,1.923,0,0,1,12.923,10.9583Z"/>
    <rect x="16" y="4" rx="2.2537" width="40" height="64" fill="none" stroke="#00a5ff" stroke-miterlimit="10" stroke-width="0.1"/>
    <rect x="16" y="4" rx="2.2537" width="40" height="64" transform="translate(72) rotate(90)" fill="none" stroke="#00a5ff" stroke-miterlimit="10" stroke-width="0.1"/>
    <circle cx="36" cy="36" r="29" fill="none" stroke="#00a5ff" stroke-miterlimit="10" stroke-width="0.1"/>
  </g>
  <g id="color">
    <path fill="#fcea2b" stroke="none" d="M14.8274,18.535c-0.3361-0.2255,80.195-10.75,29.9619,39.4441L32.69,48.4801 C32.69,48.4801,80.4392,29.907,14.8274,18.535z"/>
    <path fill="#f1b31c" stroke="none" d="M31.2981,48.3615l3.791,3.1118c11.0639-4.9912,39.6016-20.5748-0.4471-33.8447 C24.0006,17.1618,14,18.535,14,18.535C78.0026,29.5837,31.2981,48.3615,31.2981,48.3615z"/>
    <polygon fill="#fcea2b" stroke="none" points="35,30.4033 39.9443,40.4214 51,42.0279 43,49.826 44.8885,60.8371 35,55.6384 25.1115,60.8371 27,49.826 19,42.0279 30.0557,40.4214"/>
  </g>
  <g id="hair"/>
  <g id="skin"/>
  <g id="skin-shadow"/>
  <g id="line">
    <path fill="none" stroke="#000000" stroke-linecap="round" stroke-linejoin="round" stroke-miterlimit="10" stroke-width="2" d="M48.6648,34.784c0.7196-5.4552-6.5085-11.5508-33.8374-16.2489c0,0,72.9938-9.9979,34.8066,33.0676"/>
    <polygon fill="none" stroke="#000000" stroke-linecap="round" stroke-linejoin="round" stroke-miterlimit="10" stroke-width="2" points="35,30.4033 39.9443,40.4214 51,42.0279 44,49.826 45.8885,60.8371 35,55.6384 25.1115,60.8371 27,49.826 19,42.0279 30.0557,40.4214"/>
  </g>
</svg>

<svg viewBox="0 0 72 72" xmlns="http://www.w3.org/2000/svg"><path fill="#b3b3b3" d="M68 4v64H4V4h64m4-4H0v72h72V0z"/><path fill="none" stroke="#00a5ff" stroke-miterlimit="10" stroke-width=".1" d="M12.923 10.958h46.154A1.923 1.923 0 0161 12.881v46.154a1.923 1.923 0 01-1.923 1.923H12.923A1.923 1.923 0 0111 59.035V12.881a1.923 1.923 0 011.923-1.923z"/><rect x="16" y="4" rx="2.254" width="40" height="64" fill="none" stroke="#00a5ff" stroke-miterlimit="10" stroke-width=".1"/><rect x="16" y="4" rx="2.254" width="40" height="64" transform="rotate(90 36 36)" fill="none" stroke="#00a5ff" stroke-miterlimit="10" stroke-width=".1"/><circle cx="36" cy="36" r="29" fill="none" stroke="#00a5ff" stroke-miterlimit="10" stroke-width=".1"/><g stroke-linecap="round" stroke-miterlimit="10" stroke-width="6" stroke="#fff" fill="none" stroke-linejoin="round"><path d="M48.665 34.784c.72-5.455-6.509-11.55-33.838-16.249 0 0 72.994-9.998 34.807 33.068"/><path d="M35 30.403l4.944 10.018L51 42.028l-7 7.798 1.889 11.011L35 55.638l-9.889 5.2L27 49.825l-8-7.798 11.056-1.607z"/></g><path fill="#fcea2b" d="M14.827 18.535c-.336-.226 80.195-10.75 29.962 39.444L32.69 48.48s47.75-18.573-17.863-29.945z"/><path fill="#f1b31c" d="M31.298 48.361l3.791 3.112c11.064-4.99 39.602-20.574-.447-33.844-10.641-.467-20.642.906-20.642.906 64.003 11.049 17.298 29.826 17.298 29.826z"/><path fill="#fcea2b" d="M35 30.403l4.944 10.018L51 42.028l-8 7.798 1.889 11.011L35 55.638l-9.889 5.2L27 49.825l-8-7.798 11.056-1.607z"/><g fill="none" stroke="#000" stroke-linecap="round" stroke-linejoin="round" stroke-miterlimit="10" stroke-width="2"><path d="M48.665 34.784c.72-5.455-6.509-11.55-33.838-16.249 0 0 72.994-9.998 34.807 33.068"/><path d="M35 30.403l4.944 10.018L51 42.028l-7 7.798 1.889 11.011L35 55.638l-9.889 5.2L27 49.825l-8-7.798 11.056-1.607z"/></g></svg>
